documentation/public/assets/images/chip-dismissible-group.svg

<svg width="238" height="32" viewBox="0 0 238 32" fill="none" xmlns="http://www.w3.org/2000/svg">
<rect x="0.5" y="0.5" width="115" height="31" rx="3.5" fill="#F3F8FF"/>
<rect x="9" y="8" width="14" height="16" rx="2" fill="#F74E4E"/>
<path d="M16 15V8H20V15L18 13.3846L16 15Z" fill="white"/>
<path d="M29.233 21V10.8182H35.3778V11.9119H30.4659V15.3523H35.0597V16.446H30.4659V19.9062H35.4574V21H29.233ZM38.6143 16.4062V21H37.4411V13.3636H38.5746V14.5568H38.674C38.853 14.169 39.1248 13.8575 39.4893 13.6222C39.8539 13.3835 40.3246 13.2642 40.9013 13.2642C41.4183 13.2642 41.8707 13.3703 42.2585 13.5824C42.6463 13.7912 42.9479 14.1094 43.1634 14.5369C43.3788 14.9612 43.4865 15.4981 43.4865 16.1477V21H42.3132V16.2273C42.3132 15.6274 42.1574 15.16 41.8459 14.8253C41.5343 14.4872 41.1068 14.3182 40.5632 14.3182C40.1887 14.3182 39.8539 14.3994 39.5589 14.5618C39.2673 14.7242 39.0369 14.9612 38.8679 15.2727C38.6989 15.5843 38.6143 15.9621 38.6143 16.4062ZM48.7129 24.0227C48.1461 24.0227 47.6589 23.9498 47.2512 23.804C46.8436 23.6615 46.5038 23.4725 46.2321 23.2372C45.9636 23.0052 45.7498 22.7566 45.5907 22.4915L46.5254 21.8352C46.6315 21.9744 46.7657 22.1335 46.9281 22.3125C47.0905 22.4948 47.3126 22.6522 47.5943 22.7848C47.8793 22.9207 48.2522 22.9886 48.7129 22.9886C49.3294 22.9886 49.8381 22.8395 50.2392 22.5412C50.6402 22.2429 50.8407 21.7756 50.8407 21.1392V19.5881H50.7413C50.6551 19.7273 50.5325 19.8996 50.3734 20.1051C50.2176 20.3073 49.9922 20.4879 49.6973 20.647C49.4056 20.8028 49.0112 20.8807 48.514 20.8807C47.8975 20.8807 47.344 20.7348 46.8535 20.4432C46.3663 20.1515 45.9802 19.7273 45.6951 19.1705C45.4134 18.6136 45.2725 17.9375 45.2725 17.142C45.2725 16.3598 45.4101 15.6787 45.6852 15.0987C45.9603 14.5154 46.3431 14.0646 46.8336 13.7464C47.3242 13.425 47.8909 13.2642 48.5339 13.2642C49.0311 13.2642 49.4255 13.3471 49.7172 13.5128C50.0121 13.6752 50.2375 13.8608 50.3933 14.0696C50.5524 14.2751 50.675 14.4441 50.7612 14.5767H50.8805V13.3636H52.014V21.2188C52.014 21.875 51.8649 22.4086 51.5666 22.8196C51.2716 23.2339 50.8739 23.5372 50.3734 23.7294C49.8762 23.925 49.3227 24.0227 48.7129 24.0227ZM48.6731 19.8267C49.1438 19.8267 49.5415 19.719 49.8663 19.5036C50.1911 19.2881 50.438 18.9782 50.6071 18.5739C50.7761 18.1695 50.8606 17.6856 50.8606 17.1222C50.8606 16.572 50.7778 16.0864 50.612 15.6655C50.4463 15.2446 50.2011 14.9148 49.8762 14.6761C49.5514 14.4375 49.1504 14.3182 48.6731 14.3182C48.176 14.3182 47.7617 14.4441 47.4302 14.696C47.1021 14.9479 46.8552 15.286 46.6895 15.7102C46.527 16.1345 46.4458 16.6051 46.4458 17.1222C46.4458 17.6525 46.5287 18.1214 46.6944 18.5291C46.8635 18.9335 47.112 19.2517 47.4402 19.4837C47.7716 19.7124 48.1826 19.8267 48.6731 19.8267ZM55.335 10.8182V21H54.1618V10.8182H55.335ZM57.484 21V13.3636H58.6573V21H57.484ZM58.0806 12.0909C57.8519 12.0909 57.6547 12.013 57.489 11.8572C57.3266 11.7015 57.2454 11.5142 57.2454 11.2955C57.2454 11.0767 57.3266 10.8894 57.489 10.7337C57.6547 10.5779 57.8519 10.5 58.0806 10.5C58.3093 10.5 58.5049 10.5779 58.6673 10.7337C58.833 10.8894 58.9158 11.0767 58.9158 11.2955C58.9158 11.5142 58.833 11.7015 58.6673 11.8572C58.5049 12.013 58.3093 12.0909 58.0806 12.0909ZM66.2154 15.0739L65.1614 15.3722C65.0951 15.1965 64.9973 15.0258 64.8681 14.8601C64.7421 14.6911 64.5698 14.5518 64.351 14.4425C64.1323 14.3331 63.8522 14.2784 63.5108 14.2784C63.0435 14.2784 62.6541 14.3861 62.3425 14.6016C62.0343 14.8137 61.8801 15.0838 61.8801 15.4119C61.8801 15.7036 61.9862 15.9339 62.1983 16.103C62.4105 16.272 62.7419 16.4129 63.1926 16.5256L64.3262 16.804C65.0089 16.9697 65.5177 17.2232 65.8525 17.5646C66.1872 17.9027 66.3546 18.3385 66.3546 18.8722C66.3546 19.3097 66.2286 19.7008 65.9767 20.0455C65.7282 20.3902 65.3801 20.6619 64.9327 20.8608C64.4853 21.0597 63.9649 21.1591 63.3716 21.1591C62.5927 21.1591 61.9481 20.9901 61.4377 20.652C60.9273 20.3139 60.6041 19.8201 60.4682 19.1705L61.5819 18.892C61.6879 19.303 61.8884 19.6113 62.1834 19.8168C62.4817 20.0223 62.8712 20.125 63.3517 20.125C63.8986 20.125 64.3328 20.009 64.6543 19.777C64.9791 19.5417 65.1415 19.2599 65.1415 18.9318C65.1415 18.6667 65.0487 18.4446 64.8631 18.2656C64.6775 18.0833 64.3925 17.9474 64.008 17.858L62.7353 17.5597C62.0359 17.3939 61.5222 17.1371 61.1941 16.7891C60.8693 16.4377 60.7069 15.9986 60.7069 15.4716C60.7069 15.0407 60.8278 14.6596 61.0698 14.3281C61.315 13.9967 61.6481 13.7365 62.0691 13.5476C62.4933 13.3587 62.9739 13.2642 63.5108 13.2642C64.2665 13.2642 64.8598 13.4299 65.2907 13.7614C65.7248 14.0928 66.0331 14.5303 66.2154 15.0739ZM69.294 16.4062V21H68.1207V10.8182H69.294V14.5568H69.3935C69.5724 14.1624 69.8409 13.8492 70.1989 13.6172C70.5601 13.3819 71.0407 13.2642 71.6406 13.2642C72.161 13.2642 72.6167 13.3686 73.0078 13.5774C73.3989 13.7829 73.7022 14.0994 73.9176 14.527C74.1364 14.9512 74.2457 15.4915 74.2457 16.1477V21H73.0724V16.2273C73.0724 15.6207 72.915 15.1518 72.6001 14.8203C72.2886 14.4856 71.8561 14.3182 71.3026 14.3182C70.9181 14.3182 70.5734 14.3994 70.2685 14.5618C69.9669 14.7242 69.7282 14.9612 69.5526 15.2727C69.3802 15.5843 69.294 15.9621 69.294 16.4062Z" fill="#0F67F5"/>
<path d="M96.1225 16.3061L95.7689 15.9525L95.4154 16.3061L92.0854 19.6361C92.0653 19.6562 92.0352 19.6696 91.9989 19.6696C91.9626 19.6696 91.9326 19.6562 91.9125 19.6361C91.8924 19.616 91.8789 19.586 91.8789 19.5496C91.8789 19.5133 91.8924 19.4833 91.9125 19.4632L95.2425 16.1332L95.596 15.7796L95.2425 15.4261L91.9125 12.0961C91.8924 12.076 91.8789 12.046 91.8789 12.0096C91.8789 11.9733 91.8924 11.9433 91.9125 11.9232C91.9326 11.9031 91.9626 11.8896 91.9989 11.8896C92.0352 11.8896 92.0653 11.9031 92.0854 11.9232L95.4154 15.2532L95.7689 15.6068L96.1225 15.2532L99.4525 11.9232C99.4726 11.9031 99.5026 11.8896 99.5389 11.8896C99.5752 11.8896 99.6052 11.9031 99.6254 11.9232C99.6455 11.9433 99.6589 11.9733 99.6589 12.0096C99.6589 12.046 99.6455 12.076 99.6254 12.0961L96.2954 15.4261L95.9418 15.7796L96.2954 16.1332L99.6254 19.4632C99.6455 19.4833 99.6589 19.5133 99.6589 19.5496C99.6589 19.586 99.6455 19.616 99.6254 19.6361C99.6052 19.6562 99.5752 19.6696 99.5389 19.6696C99.5026 19.6696 99.4726 19.6562 99.4525 19.6361L96.1225 16.3061Z" fill="#0F67F5" stroke="#757575"/>
<rect x="0.5" y="0.5" width="115" height="31" rx="3.5" stroke="#0F67F5"/>
<rect x="128.5" y="0.5" width="109" height="31" rx="3.5" fill="#F3F8FF"/>
<rect x="136" y="8" width="16" height="16" rx="2" fill="#2986FF"/>
<path d="M139.25 17.25L139.25 14.75L148.75 14.75L148.75 17.25L139.25 17.25Z" fill="white" stroke="#2986FF" stroke-width="0.5"/>
<circle cx="144" cy="11.8002" r="1.35" fill="white" stroke="#2986FF" stroke-width="0.5"/>
<circle cx="144" cy="20.1996" r="1.35" fill="white" stroke="#2986FF" stroke-width="0.5"/>
<path d="M157.233 10.8182H158.705L162.165 19.2699H162.284L165.744 10.8182H167.216V21H166.062V13.2642H165.963L162.781 21H161.668L158.486 13.2642H158.386V21H157.233V10.8182ZM171.776 21.179C171.292 21.179 170.853 21.0878 170.459 20.9055C170.064 20.7199 169.751 20.4531 169.519 20.1051C169.287 19.7538 169.171 19.3295 169.171 18.8324C169.171 18.3949 169.257 18.0402 169.43 17.7685C169.602 17.4934 169.832 17.2779 170.121 17.1222C170.409 16.9664 170.727 16.8504 171.075 16.7741C171.426 16.6946 171.779 16.6316 172.134 16.5852C172.598 16.5256 172.974 16.4808 173.263 16.451C173.554 16.4179 173.766 16.3632 173.899 16.2869C174.035 16.2107 174.103 16.0781 174.103 15.8892V15.8494C174.103 15.3589 173.969 14.9777 173.7 14.706C173.435 14.4342 173.032 14.2983 172.492 14.2983C171.932 14.2983 171.493 14.4209 171.175 14.6662C170.856 14.9115 170.633 15.1733 170.503 15.4517L169.39 15.054C169.589 14.59 169.854 14.2287 170.185 13.9702C170.52 13.7083 170.885 13.526 171.279 13.4233C171.677 13.3172 172.068 13.2642 172.452 13.2642C172.698 13.2642 172.979 13.294 173.297 13.3537C173.619 13.41 173.929 13.5277 174.227 13.7067C174.529 13.8857 174.779 14.1558 174.978 14.517C175.177 14.8783 175.276 15.3622 175.276 15.9688V21H174.103V19.9659H174.043C173.964 20.1316 173.831 20.3089 173.645 20.4979C173.46 20.6868 173.213 20.8475 172.905 20.9801C172.596 21.1127 172.22 21.179 171.776 21.179ZM171.955 20.125C172.419 20.125 172.81 20.0339 173.128 19.8516C173.45 19.6693 173.692 19.4339 173.854 19.1456C174.02 18.8572 174.103 18.554 174.103 18.2358V17.1619C174.053 17.2216 173.944 17.2763 173.775 17.326C173.609 17.3724 173.417 17.4138 173.198 17.4503C172.983 17.4834 172.772 17.5133 172.567 17.5398C172.364 17.563 172.2 17.5829 172.074 17.5994C171.769 17.6392 171.484 17.7038 171.219 17.7933C170.957 17.8795 170.745 18.0104 170.583 18.1861C170.424 18.3584 170.344 18.5937 170.344 18.892C170.344 19.2997 170.495 19.608 170.797 19.8168C171.102 20.0223 171.488 20.125 171.955 20.125ZM180.739 13.3636V14.358H176.781V13.3636H180.739ZM177.935 11.5341H179.108V18.8125C179.108 19.1439 179.156 19.3925 179.252 19.5582C179.352 19.7206 179.478 19.83 179.63 19.8864C179.786 19.9394 179.95 19.9659 180.122 19.9659C180.251 19.9659 180.357 19.9593 180.44 19.946C180.523 19.9295 180.589 19.9162 180.639 19.9062L180.878 20.9602C180.798 20.9901 180.687 21.0199 180.545 21.0497C180.402 21.0829 180.222 21.0994 180.003 21.0994C179.671 21.0994 179.347 21.0282 179.028 20.8857C178.714 20.7431 178.452 20.526 178.243 20.2344C178.037 19.9427 177.935 19.5748 177.935 19.1307V11.5341ZM183.841 16.4062V21H182.668V10.8182H183.841V14.5568H183.94C184.119 14.1624 184.388 13.8492 184.746 13.6172C185.107 13.3819 185.588 13.2642 186.188 13.2642C186.708 13.2642 187.164 13.3686 187.555 13.5774C187.946 13.7829 188.249 14.0994 188.464 14.527C188.683 14.9512 188.793 15.4915 188.793 16.1477V21H187.619V16.2273C187.619 15.6207 187.462 15.1518 187.147 14.8203C186.835 14.4856 186.403 14.3182 185.849 14.3182C185.465 14.3182 185.12 14.3994 184.815 14.5618C184.514 14.7242 184.275 14.9612 184.099 15.2727C183.927 15.5843 183.841 15.9621 183.841 16.4062ZM196.348 15.0739L195.294 15.3722C195.228 15.1965 195.13 15.0258 195.001 14.8601C194.875 14.6911 194.703 14.5518 194.484 14.4425C194.265 14.3331 193.985 14.2784 193.644 14.2784C193.176 14.2784 192.787 14.3861 192.475 14.6016C192.167 14.8137 192.013 15.0838 192.013 15.4119C192.013 15.7036 192.119 15.9339 192.331 16.103C192.543 16.272 192.875 16.4129 193.325 16.5256L194.459 16.804C195.142 16.9697 195.651 17.2232 195.985 17.5646C196.32 17.9027 196.487 18.3385 196.487 18.8722C196.487 19.3097 196.361 19.7008 196.11 20.0455C195.861 20.3902 195.513 20.6619 195.066 20.8608C194.618 21.0597 194.098 21.1591 193.504 21.1591C192.726 21.1591 192.081 20.9901 191.57 20.652C191.06 20.3139 190.737 19.8201 190.601 19.1705L191.715 18.892C191.821 19.303 192.021 19.6113 192.316 19.8168C192.615 20.0223 193.004 20.125 193.485 20.125C194.031 20.125 194.466 20.009 194.787 19.777C195.112 19.5417 195.274 19.2599 195.274 18.9318C195.274 18.6667 195.182 18.4446 194.996 18.2656C194.81 18.0833 194.525 17.9474 194.141 17.858L192.868 17.5597C192.169 17.3939 191.655 17.1371 191.327 16.7891C191.002 16.4377 190.84 15.9986 190.84 15.4716C190.84 15.0407 190.961 14.6596 191.203 14.3281C191.448 13.9967 191.781 13.7365 192.202 13.5476C192.626 13.3587 193.107 13.2642 193.644 13.2642C194.399 13.2642 194.993 13.4299 195.423 13.7614C195.858 14.0928 196.166 14.5303 196.348 15.0739Z" fill="#0F67F5"/>
<path d="M218.122 16.3061L217.769 15.9525L217.415 16.3061L214.085 19.6361C214.065 19.6562 214.035 19.6696 213.999 19.6696C213.963 19.6696 213.933 19.6562 213.912 19.6361C213.892 19.616 213.879 19.586 213.879 19.5496C213.879 19.5133 213.892 19.4833 213.912 19.4632L217.242 16.1332L217.596 15.7796L217.242 15.4261L213.912 12.0961C213.892 12.076 213.879 12.046 213.879 12.0096C213.879 11.9733 213.892 11.9433 213.912 11.9232C213.933 11.9031 213.963 11.8896 213.999 11.8896C214.035 11.8896 214.065 11.9031 214.085 11.9232L217.415 15.2532L217.769 15.6068L218.122 15.2532L221.452 11.9232C221.473 11.9031 221.503 11.8896 221.539 11.8896C221.575 11.8896 221.605 11.9031 221.625 11.9232C221.645 11.9433 221.659 11.9733 221.659 12.0096C221.659 12.046 221.645 12.076 221.625 12.0961L218.295 15.4261L217.942 15.7796L218.295 16.1332L221.625 19.4632C221.645 19.4833 221.659 19.5133 221.659 19.5496C221.659 19.586 221.645 19.616 221.625 19.6361C221.605 19.6562 221.575 19.6696 221.539 19.6696C221.503 19.6696 221.473 19.6562 221.452 19.6361L218.122 16.3061Z" fill="#0F67F5" stroke="#757575"/>
<rect x="128.5" y="0.5" width="109" height="31" rx="3.5" stroke="#0F67F5"/>
</svg>

<svg width="238" height="32" fill="none" xmlns="http://www.w3.org/2000/svg"><rect x=".5" y=".5" width="115" height="31" rx="3.5" fill="#F3F8FF"/><rect x="9" y="8" width="14" height="16" rx="2" fill="#F74E4E"/><path d="M16 15V8h4v7l-2-1.62L16 15Z" fill="#fff"/><path d="M29.23 21V10.82h6.15v1.1h-4.91v3.43h4.59v1.1h-4.6v3.46h5V21h-6.23Zm9.38-4.6V21h-1.17v-7.64h1.13v1.2h.1c.18-.4.45-.7.82-.94a2.5 2.5 0 0 1 1.41-.36c.52 0 .97.11 1.36.32.39.21.69.53.9.96.22.42.33.96.33 1.6V21H42.3v-4.77c0-.6-.15-1.07-.46-1.4a1.67 1.67 0 0 0-1.29-.51c-.37 0-.7.08-1 .24-.3.16-.52.4-.7.71-.16.31-.25.7-.25 1.14Zm10.1 7.62c-.56 0-1.05-.07-1.46-.22a3.1 3.1 0 0 1-1.66-1.3l.94-.66c.1.13.24.3.4.47a2 2 0 0 0 .66.47c.29.14.66.2 1.12.2.62 0 1.13-.14 1.53-.44.4-.3.6-.76.6-1.4v-1.55h-.1c-.08.14-.2.31-.37.52-.15.2-.38.38-.67.54-.3.15-.69.23-1.19.23a3.07 3.07 0 0 1-2.82-1.71 4.45 4.45 0 0 1-.42-2.03c0-.78.14-1.46.42-2.04a3.03 3.03 0 0 1 2.85-1.83c.5 0 .89.08 1.18.24.3.17.52.35.67.56l.37.5h.12v-1.2h1.13v7.85a2.7 2.7 0 0 1-.44 1.6c-.3.41-.7.72-1.2.9-.5.2-1.05.3-1.66.3Zm-.04-4.2c.47 0 .87-.1 1.2-.32.32-.21.57-.52.74-.93.17-.4.25-.88.25-1.45 0-.55-.08-1.03-.25-1.45a2.19 2.19 0 0 0-.73-1 1.98 1.98 0 0 0-1.2-.35 2 2 0 0 0-1.99 1.39c-.16.42-.24.9-.24 1.41 0 .53.08 1 .24 1.4.17.41.42.73.75.96.33.23.74.35 1.23.35Zm6.66-9V21h-1.17V10.82h1.18ZM57.48 21v-7.64h1.18V21h-1.18Zm.6-8.9a.83.83 0 0 1-.6-.24.75.75 0 0 1-.23-.56c0-.22.08-.41.24-.57a.83.83 0 0 1 .6-.23c.22 0 .41.08.58.23.16.16.25.35.25.57 0 .21-.09.4-.25.56a.82.82 0 0 1-.59.23Zm8.14 2.97-1.06.3a1.96 1.96 0 0 0-.3-.51 1.5 1.5 0 0 0-.5-.42c-.23-.1-.5-.16-.85-.16a2 2 0 0 0-1.17.32c-.3.21-.46.48-.46.81 0 .3.1.52.32.7.21.16.54.3 1 .42l1.13.27c.68.17 1.19.42 1.52.76.34.34.5.78.5 1.31 0 .44-.12.83-.37 1.18-.25.34-.6.61-1.05.81-.44.2-.97.3-1.56.3-.78 0-1.42-.17-1.93-.5a2.25 2.25 0 0 1-.97-1.49l1.11-.28c.1.41.3.72.6.93.3.2.7.3 1.17.3.55 0 .98-.11 1.3-.34.33-.24.5-.52.5-.85 0-.26-.1-.49-.29-.66a1.78 1.78 0 0 0-.85-.41l-1.27-.3a3.04 3.04 0 0 1-1.55-.77 1.9 1.9 0 0 1-.48-1.32c0-.43.12-.81.36-1.14.24-.33.58-.6 1-.78.42-.2.9-.29 1.44-.29.76 0 1.35.17 1.78.5.43.33.74.77.93 1.31Zm3.07 1.34V21h-1.17V10.82h1.17v3.74h.1c.18-.4.45-.71.8-.94a2.6 2.6 0 0 1 1.45-.36c.52 0 .98.1 1.37.32.39.2.7.52.9.95.23.42.34.96.34 1.62V21h-1.18v-4.77c0-.6-.15-1.08-.47-1.41a1.7 1.7 0 0 0-1.3-.5c-.38 0-.73.08-1.03.24-.3.16-.54.4-.72.71-.17.31-.26.7-.26 1.14Z" fill="#0F67F5"/><path d="m96.12 16.3-.35-.35-.35.36-3.33 3.33a.12.12 0 0 1-.1.03.12.12 0 0 1-.08-.03.12.12 0 0 1-.03-.09c0-.04.01-.07.03-.09l3.33-3.33.36-.35-.36-.35-3.33-3.33a.12.12 0 0 1-.03-.09c0-.04.01-.07.03-.09a.12.12 0 0 1 .09-.03c.04 0 .07.01.09.03l3.33 3.33.35.36.35-.36 3.33-3.33a.12.12 0 0 1 .09-.03c.04 0 .07.01.09.03.02.02.03.05.03.09 0 .04-.01.07-.03.09l-3.33 3.33-.36.35.36.35 3.33 3.33c.02.02.03.05.03.09 0 .04-.01.07-.03.09a.12.12 0 0 1-.1.03.12.12 0 0 1-.08-.03l-3.33-3.33Z" fill="#0F67F5" stroke="#757575"/><rect x=".5" y=".5" width="115" height="31" rx="3.5" stroke="#0F67F5"/><rect x="128.5" y=".5" width="109" height="31" rx="3.5" fill="#F3F8FF"/><rect x="136" y="8" width="16" height="16" rx="2" fill="#2986FF"/><path d="M139.25 17.25v-2.5h9.5v2.5h-9.5Z" fill="#fff" stroke="#2986FF" stroke-width=".5"/><circle cx="144" cy="11.8" r="1.35" fill="#fff" stroke="#2986FF" stroke-width=".5"/><circle cx="144" cy="20.2" r="1.35" fill="#fff" stroke="#2986FF" stroke-width=".5"/><path d="M157.23 10.82h1.48l3.45 8.45h.12l3.46-8.45h1.48V21h-1.16v-7.74h-.1L162.78 21h-1.11l-3.18-7.74h-.1V21h-1.16V10.82Zm14.55 10.36c-.49 0-.93-.1-1.32-.27-.4-.19-.7-.46-.94-.8a2.26 2.26 0 0 1-.35-1.28c0-.44.09-.79.26-1.06.17-.28.4-.5.7-.65.28-.15.6-.27.94-.35.36-.08.7-.14 1.06-.18l1.13-.14c.3-.03.5-.09.64-.16.13-.08.2-.21.2-.4v-.04c0-.5-.13-.87-.4-1.14-.26-.28-.67-.41-1.2-.41a2.07 2.07 0 0 0-2 1.15l-1.11-.4a2.68 2.68 0 0 1 1.89-1.63 4.54 4.54 0 0 1 2.02-.07c.32.06.63.18.93.36.3.18.55.45.75.8.2.37.3.85.3 1.46V21h-1.18v-1.03h-.06a2.29 2.29 0 0 1-1.14 1.01c-.3.13-.68.2-1.12.2Zm.18-1.05c.46 0 .85-.1 1.17-.28a1.86 1.86 0 0 0 .97-1.61v-1.08a.71.71 0 0 1-.32.17 5.55 5.55 0 0 1-1.21.21l-.5.06c-.3.04-.59.1-.85.2-.26.08-.47.21-.64.39a1 1 0 0 0-.24.7c0 .41.16.72.46.93.3.2.69.3 1.16.3Zm8.78-6.77v1h-3.96v-1h3.96Zm-2.8-1.83h1.17v7.28c0 .33.05.58.14.75.1.16.23.27.38.33.16.05.32.08.5.08l.31-.02.2-.04.24 1.05a2.41 2.41 0 0 1-.88.14c-.33 0-.65-.07-.97-.21a1.94 1.94 0 0 1-.79-.66 1.9 1.9 0 0 1-.3-1.1v-7.6Zm5.9 4.88V21h-1.17V10.82h1.17v3.74h.1c.18-.4.45-.71.8-.94a2.6 2.6 0 0 1 1.45-.36c.52 0 .97.1 1.37.32.39.2.69.52.9.95.22.42.33.96.33 1.62V21h-1.17v-4.77a2 2 0 0 0-.47-1.41c-.31-.33-.75-.5-1.3-.5-.38 0-.73.08-1.03.24-.3.16-.54.4-.72.71-.17.31-.26.7-.26 1.14Zm12.5-1.34-1.05.3a1.95 1.95 0 0 0-.29-.51c-.13-.17-.3-.3-.52-.42-.22-.1-.5-.16-.84-.16a2 2 0 0 0-1.16.32c-.31.21-.47.48-.47.81 0 .3.1.52.32.7.21.16.54.3 1 .42l1.13.27c.68.17 1.2.42 1.53.76.33.34.5.78.5 1.31 0 .44-.13.83-.38 1.18-.25.34-.6.61-1.04.81-.45.2-.97.3-1.57.3a3.5 3.5 0 0 1-1.93-.5 2.25 2.25 0 0 1-.97-1.49l1.12-.28c.1.41.3.72.6.93.3.2.68.3 1.17.3.54 0 .98-.11 1.3-.34.32-.24.48-.52.48-.85a.88.88 0 0 0-.27-.66 1.78 1.78 0 0 0-.86-.41l-1.27-.3a3.04 3.04 0 0 1-1.54-.77c-.33-.35-.49-.8-.49-1.32 0-.43.12-.81.36-1.14.25-.33.58-.6 1-.78.43-.2.9-.29 1.44-.29.76 0 1.35.17 1.78.5.44.33.75.77.93 1.31Z" fill="#0F67F5"/><path d="m218.12 16.3-.35-.35-.36.36-3.32 3.33a.12.12 0 0 1-.1.03.12.12 0 0 1-.08-.03.12.12 0 0 1-.03-.09c0-.04.01-.07.03-.09l3.33-3.33.36-.35-.36-.35-3.33-3.33a.12.12 0 0 1-.03-.09c0-.04.01-.07.03-.09a.12.12 0 0 1 .09-.03l.09.03 3.32 3.33.36.36.35-.36 3.33-3.33a.12.12 0 0 1 .09-.03l.09.03c.02.02.03.05.03.09 0 .04-.01.07-.03.09l-3.34 3.33-.35.35.35.35 3.34 3.33c.02.02.03.05.03.09 0 .04-.01.07-.03.09a.12.12 0 0 1-.1.03.12.12 0 0 1-.08-.03l-3.33-3.33Z" fill="#0F67F5" stroke="#757575"/><rect x="128.5" y=".5" width="109" height="31" rx="3.5" stroke="#0F67F5"/></svg>
